X:1
T:Quomodo dilexi
T:Constantijn Huygens
T:Quomodo dilexi
T:Psalmus 119:97,102,103
C:Constantijn Huygens
%%score 1 { ( 2 4 ) | ( 3 5 ) }
L:1/8
Q:1/4=60
M:4/4
K:Bb
V:1 treble nm="Soprano" snm="S"
V:2 treble nm="Organ" snm="Org."
V:4 treble 
V:3 bass 
V:5 bass 
V:1
 G>A G A B>c d2 |[M:3/4] e>e d2 z G | c4 =B2 |[M:4/4] c4 A2 AA | d4 B4 | z4 =B4 | c4 ^c3 c | d8 | %8
w: Quo- mo- do, quo- * mo- do,|quo- mo- do di-|le- xi|le- gem, le- gem|tu- am,|Do-|* * mi-|ne!|
 z2 FF G3 D | =EEEE F3 C | D2 DD D2 D2 | D2 D=E ^C2 DD | D6 ^C2 | D8 :: A2 G2 F2 FF | %15
w: to- ta, to- ta|di- e me- di- ta- ti-|o, me- di- ta- ti-|o, me- di- ta- ti- o|me- a|est.|A ju- di- ci- is|
 G2 G2 G2 G2- | G2 G2 G4- | G4 G4 | AA A2 d4 | B3 F FFFG | A8 | A8 | B4 B>B B2 | B4 c>c c2 | %24
w: tu- is non de-|* cli- na-|* vi,|qui- a tu, tu|le- gem po- su- is- ti|mi-|hi.|Quam dul- ci- a,|quam dul- ci- a|
 c2 cc d2 GG | c6 BB | B4 A4 | d4 d2 =ef | g2 B>c d4- | d2 ^F4 G2 | G6 (^F2 | G8) :| %32
w: fau- ci- bus me- is e-|lo- qui- a|tu- a!|su- per, su- per|mel o- * *|* * ri|me- o.|_|
V:2
 [B,DG]8 |[M:3/4] [EGc]2 [DG]4 | [CEG]4 [DF]2 |[M:4/4] [C=EG]4 [CFA]4 | [DA]4 [GB]4 | [=B,DG]8 | %6
 [=EG]4- [EA]4 | [D-^F-A]8 | [D-!courtesy!=FA]4 [DG]4 | C8 | [B,D-]4 [A,D]4 | =B,2 C2 A,4- | %12
 A,4 G,4 | [F,A,D]8 :: [A,D]8 | [G,-=B,D]4 [G,CE]4 | [G,-C=E]4 [G,DF]4 | [G,C=E]4 [C_EG]4 | %18
 [D-F]4 [DGB]4 | [DB]4- [DFB]4 | F4 =E4 | ^F4 =F4 | [DF]4 [EG]4 | [DF]4 A2 _A2 | [EG-]4 [DG]4 | %25
 [EG]4 [D^F]4 | [D-G]4 F4 | [GB-]4 [FB]4 | [D-GB-]4 [DFB]4 | [D-^FA]4 [DGB]4 | x8 | [=B,DG]8 :| %32
V:3
 G,4 G,,4 |[M:3/4] C,2 =B,,4 | C,2 G,,2 G,2 |[M:4/4] =E,4 F,4 | ^F,4 G,4- | G,4 G,2 G,,2 | %6
 =E,,4 A,,2 A,,,2 | D,,8 | D,4 =B,,4 | C,2 B,,2 A,,4 | B,,2 G,,4 ^F,,2 | G,2 C,2 =E,2 F,2 | =E,8 | %13
 D,,8 :: x8 | x8 | x8 | x8 | x8 | x8 | x8 | x8 | x8 | x8 | x8 | x8 | x8 | x8 | x8 | x8 | x8 | %31
 G,,8 :| %32
V:4
 x8 |[M:3/4] x6 | x6 |[M:4/4] x8 | x8 | x8 | x8 | x8 | x8 | G,4 F,4 | x8 | x8 | x8 | x8 :: x8 | %15
 x8 | x8 | x8 | x8 | x8 | D4 D2 ^C2 | D8 | x8 | x8 | x8 | x8 | G,4 D4 | =E4 D4 | x8 | x8 | %30
 [A,-D]4 [A,C]4 | x8 :| %32
V:5
 x8 |[M:3/4] x6 | x6 |[M:4/4] x8 | x8 | x8 | x8 | x8 | x8 | x8 | x8 | G,,2 =E,,2 A,,4- | %12
 A,,4 A,,,4 | x8 :: z4 D,2 C,2 | =B,,4 C,4 | G,,2 =E,,2 =B,,,2 C,,2 | G,,,4 C,,4 | A,,2 D,4 G,2- | %19
 G,2 B,4 A,G, | F,2 G,2 A,2 A,,2 | D,8 | B,,4 E,4 | B,,4 F,4 | C,4 =B,,4 | C,2 C2 A,2 ^F,2 | %26
 G,4 D,4- | D,4 B,2 A,2 | G,6 B,,>C, | D,6 B,>C | D,,8 | x8 :| %32

